!!!COM: Grieg, Edvard
!!!CDT: 1843/06/15/-1907/09/04/
!!!OPR: Lyric Pieces
!!!OPS: Op. 43
!!!ONM: No. 3
!!!OTL@@NO: I Hjemmet
!!!OTL@EN: In My Native Country
!!!OTL@DE: Ibn der Heimat
!!!OTL@FR: Dans mon pays
!!!ODT: 1886///
!!!OMD: Poco andante
**kern	**kern	**dynam
*staff2	*staff1	*staff1/2
*Ipiano	*Ipiano	*Ipiano
*clefG2	*clefG2	*clefG2
*k[f#c#g#d#a#e#]	*k[f#c#g#d#a#e#]	*k[f#c#g#d#a#e#]
*F#:	*F#:	*F#:
*met(C)	*met(C)	*met(C)
*M4/4	*M4/4	*M4/4
*MM100	*MM100	*MM100
=1-	=1-	=1-
*^	*^	*
4a#/	(1d#	(4ff#/	2.dd#\	p
8g#/L	.	8gg#/L	.	.
8f#/J	.	8aa#/J	.	.
4a#/	.	4ff#/	.	.
4f#/	.	8aa#/L	4dd#\	.
.	.	8bb/J	.	.
=2	=2	=2	=2	=2
2f#/	2A#\	4ccc#/	2cc#\	.
.	.	8ccc#/L	.	.
.	.	8bb/J	.	.
4e#/	2c#\	4.gg#/	2cc#\	.
4en/	.	.	.	.
.	.	8aa#/	.	.
*v	*v	*	*	*
*clefF4	*	*	*
=3	=3	=3	=3
4G#\ 4d#\	8bb/L	4b\	<
.	8aa#/	.	.
4B\ 4d#\	8ff#/	4b\	.
.	8gg#/J	.	.
4F#\ 4c#\	8aa#/L	4a#\	.
.	8cc#/	.	.
4D#\ 4f#\	8ff#/	4cc#\	.
.	8ee#/J	.	.
=4	=4	=4	=4
*^	*	*	*
2f#/	4G#\	4dd#/	8b#\L	>
.	.	.	8a#\J	.
.	2c#\	[2cc#/	2.g#\	.
2e#/	.	.	.	.
.	4B#\)	8cc#/L]	.	.
.	.	8cc##/J)	.	.
=5	=5	=5	=5	=5
4f#/	[1Bn	(4dd#/	2.bn\	pp
(8e#/L	.	8ee#/L	.	.
8d#/J	.	8ff#/J	.	.
4f#/	.	4dd#/	.	.
4d#/	.	8ff#/L	4b\	.
.	.	8gg#/J	.	.
=6	=6	=6	=6	=6
4e#/	4B\]	8cc#/L	4g#\	<
.	.	8ee#/	.	.
4c#/	2A#\	8ee#/	4a#\	.
.	.	8ff#/J	.	.
2d#/	.	4.b/	2f#\	.
.	[4G#\	.	.	.
.	.	8dd#/	.	>
=7	=7	=7	=7	=7
4B/	4G#\]	8dd#^/L	4e#\	.
.	.	8cc#/	.	.
4c#/	4A#\	8cc#/	4f#\	.
.	.	8a#/J	.	.
2F#/	4D#\	8f#/L	4c#\	.
.	.	8a#/	.	.
.	4GG#\	8a#/	4B#\	.
.	.	8f#/J	.	.
=8	=8	=8	=8	=8
4Bn/	2C#\	4g#/	8e#\L	.
.	.	.	8d#\J	.
2A#/	.	2f#/)	2c#\	.
.	4FF#\)	.	.	.
4r	4r	(8e#/L	4r	p
.	.	8f#/J	.	.
*v	*v	*	*	*
=9	=9	=9	=9
4C#\ (4G#\	4g#/	4c#\ 4e#\	<
4GG#/ 4D#/	4a#/	4B\ 4f#\	>
4C#\ 4G#\)	4g#/)	4c#\ 4e#\	.
4r	(8e#/L	4r	.
.	8f#/J	.	.
=10	=10	=10	=10
4C#\ (4G#\	8g#/L	4c#\ 4e#\	<
.	&(8a#/&)	.	.
4GG#/ 4D#/	8a#/	4B\ 4f#\	>
.	&(8g#/J&)	.	.
4C#\ 4G#\)	4g#/)	4c#\ 4e#\	.
4r	(8e#/L	4r	.
.	8f#/J	.	.
=11	=11	=11	=11
4C#\ (4G#\	8g#/)	4c#\ 4e#\	<
.	(4b^/	.	.
4GG#/ 4D#/	.	4B\ 4f#\	.
.	8a#/	.	.
4C#\ 4G#\	8g#/)	4c#\ 4e#\	.
.	(4dd#^/	.	.
4GG#/ 4D#/	.	4B\ 4f#\	.
.	8b/	.	.
=12	=12	=12	=12
8C#\ 8G#\)	8g#/L	8c#\ 8e#\	.
8r	(8ff#/)	8r	.
*	*v	*v	*
.	ee#q/LL	.
.	ff#q/JJ	.
*	*^	*
(2GG#\ 2D#\ [2B\	8ee#/	[4f#\	f
.	8dd#/J	.	.
.	8b/L	8f#\]	.
.	8d#/	4.r	>
4C#\) 4B\]	8d##/	.	.
.	8e#/ 8a#/J)	.	.
=13	=13	=13	=13
*^	*	*	*
4A#/	(1D#	(4f#/	2.d#\	p
8G#/L	.	8g#/L	.	.
8F#/J	.	8a#/J	.	.
4A#/	.	4f#/	.	.
4F#/	.	8a#/L	4d#\	.
.	.	8b/J	.	.
=14	=14	=14	=14	=14
2F#/	2AA#\	4cc#/	2c#\	.
.	.	8cc#/L	.	.
.	.	8b/J	.	.
4E#/	2C#\	4.g#/	2c#\	.
4En/	.	.	.	.
.	.	8a#/	.	.
*v	*v	*	*	*
=15	=15	=15	=15
4GG#/ 4D#/	8b/L	4B\	.
.	8a#/	.	.
4BB/ 4D#/	8f#/	4B\	<
.	8g#/J	.	.
4FF#/ 4C#/	8a#/L	4A#\	.
.	8c#/	.	.
4DD#/ 4F#/	8f#/	4c#\	.
.	8e#/J	.	.
=16	=16	=16	=16
*^	*	*	*
2F#/	4GG#\	4d#/	8B#\L	.
.	.	.	8A#\J	.
.	2C#\	[2c#/	2.G#\	.
2E#/	.	.	.	.
.	4BB#\)	8c#/L]	.	.
.	.	8c##/J)	.	.
=17	=17	=17	=17	=17
4F#/	([1BBn	(4d#/	2.B\	pp
8E#/L	.	8e#/L	.	.
8D#/J	.	8f#/J	.	.
4F#/	.	4d#/	.	.
4D#/	.	8f#/L	4B\	.
.	.	8g#/J	.	.
=18	=18	=18	=18	=18
4E#/	4BB\]	8c#/L	4G#\	.
.	.	8e#/	.	.
4C#/	2AA#\	8e#/	4A#\	.
.	.	8f#/J	.	.
2D#/ 2F#/	.	4.B/	2r	.
.	[4GG#\	.	.	.
.	.	8d#/	.	.
=19	=19	=19	=19	=19
4E#/	4GG#\] 4BB\	2r	8d#/L	.
.	.	.	8c#/	.
4F#/	4AA#\ 4C#\	.	8c#/	.
.	.	.	8A#/J	.
*	*	*v	*v	*
*	*	*clefF4	*clefF4
*	*	*^	*
2FF#/	4DD#\	8F#/L	4C#\	.
.	.	8A#/	.	.
.	4GGG#\	8A#/	4BB#\	.
.	.	8F#/J	.	.
=20	=20	=20	=20	=20
4BBn/	2CC#\	4G#/	8E#\L	>
.	.	.	8D#\J	.
2AA#/	.	2F#/)	2C#\	.
.	4FFF#\)	.	.	.
*	*	*v	*v	*
*	*	*clefG2	*clefG2
*	*	*^	*
4r	4r	(8e#/L	4r	p
.	.	8f#/J	.	.
*v	*v	*	*	*
=21	=21	=21	=21
4C#\ (4G#\	4g#/	4c#\ 4e#\	<
4GG#/ 4D#/	4a#/	4B\ 4f#\	>
4C#\ 4G#\)	4g#/)	4c#\ 4e#\	.
4r	(8e#/L	4r	.
.	8f#/J	.	.
=22	=22	=22	=22
4C#\ (4G#\	8g#/L	4c#\ 4e#\	<
.	8a#/	.	.
4GG#/ 4D#/	&(8a#/&)	4B\ 4f#\	>
.	8g#/J	.	.
4C#\ 4G#\)	&(4g#/&))	4c#\ 4e#\	.
4r	(8e#/L	4r	.
.	8f#/J	.	.
=23	=23	=23	=23
4C#\ (4G#\	8g#/)	4c#\ 4e#\	<
.	(4b^/	.	.
4GG#/ 4D#/	.	4B\ 4f#\	.
.	8a#/	.	.
4C#\ 4G#\	8g#/)	4c#\ 4e#\	.
.	(4dd#^/	.	.
4GG#/ 4D#/	.	4B\ 4f#\	.
.	8b/	.	.
=24	=24	=24	=24
8C#\ 8G#\)	8g#/L	8c#\ 8e#\	.
8r	(8ff#/)	8r	.
*	*v	*v	*
.	ee#q/LL	.
.	ff#q/JJ	.
*	*^	*
(2GG#\ 2D#\ [2B\	8ee#/	[4f#\	f
.	8dd#/J	.	.
.	8f#/] 8b/L	2r	>
.	8d#/	.	.
4C#\) 4B\]	8d##/	.	.
.	8e#/ 8a#/J)	.	.
=25	=25	=25	=25
*^	*	*	*
4A#/	(1D#	(4f#/	2.d#\	p
8G#/L	.	8g#/L	.	.
8F#/J	.	8a#/J	.	.
4A#/	.	4f#/	.	.
4F#/	.	8a#/L	4d#\	.
.	.	8b/J	.	.
=26	=26	=26	=26	=26
2F#/	2AA#\	4cc#/	2c#\	.
.	.	8cc#/L	.	.
.	.	8b/J	.	.
4E#/	2C#\	4.g#/	2c#\	.
4En/	.	.	.	.
.	.	8a#/	.	.
*v	*v	*	*	*
=27	=27	=27	=27
4GG#/ 4D#/	8b/L	4B\	.
.	8a#/	.	.
4BB/ 4D#/	8f#/	4B\	.
.	8g#/J	.	.
4FF#/ 4C#/	8a#/L	4A#\	<
.	8c#/	.	.
4DD#/ 4F#/	8f#/	4c#\	.
.	8e#/J	.	.
=28	=28	=28	=28
*^	*	*	*
2F#/	4GG#\	4d#/	8B#\L	.
.	.	.	8A#\J	>
.	2C#\	[2c#/	2.G#\	.
2E#/	.	.	.	.
.	4BB#\)	8c#/L]	.	.
.	.	8c##/J)	.	.
=29	=29	=29	=29	=29
4F#/	([1BBn	(4d#/	2.Bn\	pp
8E#/L	.	8e#/L	.	.
8D#/J	.	8f#/J	.	.
4F#/	.	4d#/	.	.
4D#/	.	8f#/L	4B\	.
.	.	8g#/J	.	.
=30	=30	=30	=30	=30
4E#/	4BB\]	8c#/L	4G#\	.
.	.	8e#/	.	.
4C#/	2AA#\	8e#/	4A#\	.
.	.	8f#/J	.	.
2D#/ 2F#/	.	4.B/	2r	.
.	[4GG#\	.	.	.
.	.	8d#/	.	.
=31	=31	=31	=31	=31
4E#/	4GG#\] 4BB\	2r	8d#/L	.
.	.	.	8c#/	.
4F#/	4AA#\ 4C#\	.	8c#/	.
.	.	.	8A#/J	.
*	*	*v	*v	*
*	*	*clefF4	*clefF4
*	*	*^	*
2FF#/	4DD#\	8F#/L	4C#\	.
.	.	8A#/	.	.
.	4GGG#\	8A#/	4BB#\	.
.	.	8F#/J	.	.
=32	=32	=32	=32	=32
4BBn/	2CC#\	4G#/	8E#\L	>
.	.	.	8D#\J	.
2AA#/	.	2F#/)	2C#\	.
.	4FFF#\)	.	.	.
4r	4r	4r	4r	.
*v	*v	*	*	*
*	*v	*v	*
*clefG2	*clefG2	*clefG2
=33	=33	=33
*^	*^	*
4b/	(2c#\	(4gg#/	8ee#\L	pp
.	.	.	8dd#\J	.
&(2a#/&)	.	2ff#/)	2cc#\	.
.	4F#\)	.	.	.
4r	4r	4r	4r	.
*v	*v	*	*	*
*	*v	*v	*
*clefF4	*	*
=34	=34	=34
[2CC#/ [2C#/	[2B/ [2c#/ [2e#/ [2g#/	ppp
8CC#/] 8C#/]	8B/] 8c#/] 8e#/] 8g#/]	.
8r	8r	.
4r	4r	.
=35	=35	=35
[2FFF#/ [2FF#/	[2A#/ [2c#/ [2f#/	.
8FFF#/] 8FF#/]	8A#/] 8c#/] 8f#/]	.
8r	8r	.
4r	4r	.
==	==	==
*-	*-	*-
!!!ENC: Craig Stuart Sapp
!!!END: 2008/02/27/
